svg/200/rounded/high_density-fill.svg

<svg xmlns="http://www.w3.org/2000/svg" width="48" height="48" viewBox="0 -960 960 960"><path d="M779.811-760q-8.58 0-14.195-5.804Q760-771.609 760-780.189t5.804-14.196Q771.609-800 780.189-800t14.196 5.804Q800-788.392 800-779.811q0 8.58-5.804 14.195Q788.392-760 779.811-760Zm0 149.615q-8.58 0-14.195-5.406Q760-621.197 760-630.176q0-8.978 5.804-14.593 5.805-5.616 14.385-5.616t14.196 5.801q5.615 5.8 5.615 14.375 0 9.363-5.804 14.594-5.804 5.23-14.385 5.23Zm0 150.385q-8.58 0-14.195-5.804Q760-471.609 760-480.189t5.804-14.196Q771.609-500 780.189-500t14.196 5.804Q800-488.391 800-479.811t-5.804 14.196Q788.392-460 779.811-460Zm0 149.616q-8.58 0-14.195-5.407Q760-321.197 760-330.175q0-8.979 5.804-14.594 5.805-5.616 14.385-5.616t14.196 5.801q5.615 5.8 5.615 14.375 0 9.363-5.804 14.594t-14.385 5.231ZM179.811-160q-8.58 0-14.196-5.804Q160-171.608 160-180.189q0-8.58 5.804-14.195Q171.608-200 180.189-200q8.58 0 14.195 5.804Q200-188.391 200-179.811t-5.804 14.196Q188.391-160 179.811-160Zm150.398 0q-9.363 0-14.594-5.804t-5.231-14.385q0-8.58 5.407-14.195Q321.197-200 330.175-200q8.979 0 14.594 5.804 5.616 5.805 5.616 14.385t-5.801 14.196q-5.8 5.615-14.375 5.615Zm149.602 0q-8.58 0-14.196-5.804Q460-171.608 460-180.189q0-8.58 5.804-14.195Q471.609-200 480.189-200t14.196 5.804Q500-188.391 500-179.811t-5.804 14.196Q488.391-160 479.811-160Zm150.398 0q-9.363 0-14.594-5.804-5.23-5.804-5.23-14.385 0-8.58 5.406-14.195Q621.197-200 630.176-200q8.978 0 14.593 5.804 5.616 5.805 5.616 14.385t-5.801 14.196q-5.8 5.615-14.375 5.615Zm149.602 0q-8.58 0-14.195-5.804Q760-171.608 760-180.189q0-8.58 5.804-14.195Q771.609-200 780.189-200t14.196 5.804Q800-188.391 800-179.811t-5.804 14.196Q788.392-160 779.811-160ZM160-365.769v-378.847q0-22.25 16.567-38.817T215.384-800H595q22.25 0 38.817 16.567 16.568 16.567 16.568 38.817v378.847q0 22.846-16.568 39.115-16.567 16.27-38.817 16.27H215.384q-22.25 0-38.817-16.27Q160-342.923 160-365.769Z"/></svg>

<svg xmlns="http://www.w3.org/2000/svg" width="48" height="48" viewBox="0 -960 960 960"><path d="M779.81-760q-8.58 0-14.19-5.8-5.62-5.81-5.62-14.39 0-8.58 5.8-14.19 5.81-5.62 14.39-5.62 8.58 0 14.19 5.8 5.62 5.81 5.62 14.39 0 8.58-5.8 14.19-5.81 5.62-14.39 5.62Zm0 149.62q-8.58 0-14.19-5.41-5.62-5.41-5.62-14.39 0-8.97 5.8-14.59 5.81-5.61 14.39-5.61 8.58 0 14.19 5.8 5.62 5.8 5.62 14.37 0 9.36-5.8 14.59-5.81 5.24-14.39 5.24Zm0 150.38q-8.58 0-14.19-5.8-5.62-5.81-5.62-14.39 0-8.58 5.8-14.19 5.81-5.62 14.39-5.62 8.58 0 14.19 5.8 5.62 5.81 5.62 14.39 0 8.58-5.8 14.19-5.81 5.62-14.39 5.62Zm0 149.62q-8.58 0-14.19-5.41-5.62-5.41-5.62-14.39 0-8.97 5.8-14.59 5.81-5.61 14.39-5.61 8.58 0 14.19 5.8 5.62 5.8 5.62 14.37 0 9.36-5.8 14.59-5.81 5.24-14.39 5.24ZM179.81-160q-8.58 0-14.19-5.8-5.62-5.81-5.62-14.39 0-8.58 5.8-14.19 5.81-5.62 14.39-5.62 8.58 0 14.19 5.8 5.62 5.81 5.62 14.39 0 8.58-5.8 14.19-5.81 5.62-14.39 5.62Zm150.4 0q-9.36 0-14.59-5.8-5.24-5.81-5.24-14.39 0-8.58 5.41-14.19 5.41-5.62 14.39-5.62 8.97 0 14.59 5.8 5.61 5.81 5.61 14.39 0 8.58-5.8 14.19-5.8 5.62-14.37 5.62Zm149.6 0q-8.58 0-14.19-5.8-5.62-5.81-5.62-14.39 0-8.58 5.8-14.19 5.81-5.62 14.39-5.62 8.58 0 14.19 5.8 5.62 5.81 5.62 14.39 0 8.58-5.8 14.19-5.81 5.62-14.39 5.62Zm150.4 0q-9.36 0-14.59-5.8-5.24-5.81-5.24-14.39 0-8.58 5.41-14.19 5.41-5.62 14.39-5.62 8.97 0 14.59 5.8 5.61 5.81 5.61 14.39 0 8.58-5.8 14.19-5.8 5.62-14.37 5.62Zm149.6 0q-8.58 0-14.19-5.8-5.62-5.81-5.62-14.39 0-8.58 5.8-14.19 5.81-5.62 14.39-5.62 8.58 0 14.19 5.8 5.62 5.81 5.62 14.39 0 8.58-5.8 14.19-5.81 5.62-14.39 5.62ZM160-365.77v-378.85q0-22.25 16.57-38.81Q193.13-800 215.38-800H595q22.25 0 38.82 16.57 16.56 16.56 16.56 38.81v378.85q0 22.85-16.56 39.12-16.57 16.27-38.82 16.27H215.38q-22.25 0-38.81-16.27Q160-342.92 160-365.77Z"/></svg>
